src/assets/icons/fighting.svg

<svg xmlns="http://www.w3.org/2000/svg" height="48" width="48"><path d="M3.35 46.3 0 43.7l6.75-7.75-2.1-6.25q-.45-1.3-.15-2.475.3-1.175 1.1-1.975l6.2-6.65q.55-.6 1.325-.925.775-.325 1.525-.325.75 0 1.525.35.775.35 1.325.9l4.2 3.95q2.1 1.9 3.325 2.325 1.225.425 3.225.425v4.15q-2.55 0-4.85-.775T19.1 25.9l-1.45-1.5L13 29.2l5.6 4.65v12.2h-4.15v-10.1L11 32.85v4.5Zm26.1-.25v-13.4l4.45-4.5-1.6-9q-1.9 2.45-3.425 3.525Q27.35 23.75 25.65 24.1q-.95-.4-1.75-.975T22.2 21.5q2.6-.45 4.525-1.65 1.925-1.2 3.575-3.95l2.05-3.35q1-1.55 2.625-1.85 1.625-.3 3.125.4l9.9 4.3v9.55h-4.15v-6.8L40 16.45l5.05 29.6H40.9L37.45 30.9 33.6 35v11.05Zm-7.3-28.3q-1.8 0-3-1.25t-1.2-3q0-1.8 1.2-3.025 1.2-1.225 3-1.225 1.75 0 2.975 1.225T26.35 13.5q0 1.75-1.225 3t-2.975 1.25Zm10.25-8.9q-1.75 0-2.975-1.225T28.2 4.65q0-1.75 1.225-2.975T32.4.45q1.8 0 3.025 1.225Q36.65 2.9 36.65 4.65t-1.225 2.975Q34.2 8.85 32.4 8.85Z"/></svg>

<?xml version="1.0" encoding="UTF-8" standalone="no"?>
<svg
   height="48"
   width="48"
   version="1.1"
   id="svg78"
   sodipodi:docname="fighting.svg"
   inkscape:version="1.2.1 (9c6d41e410, 2022-07-14)"
   xmlns:inkscape="http://www.inkscape.org/namespaces/inkscape"
   xmlns:sodipodi="http://sodipodi.sourceforge.net/DTD/sodipodi-0.dtd"
   xmlns="http://www.w3.org/2000/svg"
   xmlns:svg="http://www.w3.org/2000/svg">
  <defs
     id="defs82" />
  <sodipodi:namedview
     id="namedview80"
     pagecolor="#505050"
     bordercolor="#eeeeee"
     borderopacity="1"
     inkscape:showpageshadow="0"
     inkscape:pageopacity="0"
     inkscape:pagecheckerboard="0"
     inkscape:deskcolor="#505050"
     showgrid="false"
     inkscape:zoom="4.9166667"
     inkscape:cx="24"
     inkscape:cy="24.101695"
     inkscape:window-width="1500"
     inkscape:window-height="930"
     inkscape:window-x="-6"
     inkscape:window-y="-6"
     inkscape:window-maximized="1"
     inkscape:current-layer="svg78" />
  <path
     id="path76"
     d="M 3.35,46.3 0,43.7 6.75,35.95 4.65,29.7 Q 4.2,28.4 4.5,27.225 4.8,26.05 5.6,25.25 L 11.8,18.6 Q 12.35,18 13.125,17.675 13.9,17.35 14.65,17.35 q 0.75,0 1.525,0.35 0.775,0.35 1.325,0.9 l 4.2,3.95 q 2.1,1.9 3.325,2.325 1.225,0.425 3.225,0.425 v 4.15 Q 25.7,29.45 23.4,28.675 21.1,27.9 19.1,25.9 l -1.45,-1.5 -4.65,4.8 5.6,4.65 v 12.2 H 14.45 V 35.95 L 11,32.85 v 4.5 z m 26.1,-0.25 v -13.4 l 4.45,-4.5 -1.6,-9 Q 30.4,21.6 28.875,22.675 27.35,23.75 25.65,24.1 24.7,23.7 23.9,23.125 23.1,22.55 22.2,21.5 24.8,21.05 26.725,19.85 28.65,18.65 30.3,15.9 l 2.05,-3.35 q 1,-1.55 2.625,-1.85 1.625,-0.3 3.125,0.4 l 9.9,4.3 v 9.55 h -4.15 v -6.8 L 40,16.45 45.05,46.05 H 40.9 L 37.45,30.9 33.6,35 v 11.05 z m -7.3,-28.3 q -1.8,0 -3,-1.25 -1.2,-1.25 -1.2,-3 0,-1.8 1.2,-3.025 1.2,-1.225 3,-1.225 1.75,0 2.975,1.225 1.225,1.225 1.225,3.025 0,1.75 -1.225,3 -1.225,1.25 -2.975,1.25 z M 32.4,8.85 Q 30.65,8.85 29.425,7.625 28.2,6.4 28.2,4.65 28.2,2.9 29.425,1.675 30.65,0.45 32.4,0.45 q 1.8,0 3.025,1.225 Q 36.65,2.9 36.65,4.65 36.65,6.4 35.425,7.625 34.2,8.85 32.4,8.85 Z" />
</svg>
